!!!OTL: ODILIA DIE WAR BLIND GEBORN
!!!ARE: Europa, Mitteleuropa, Deutschland, Niederrhein
!!!SCT: E2113
!!!YEM: Copyright 1995, estate of Helmut Schaffrath.
**kern
*ICvox
*Ivox
*M4/4
*k[f#]
*G:
{4d
=1
4g
4b
4a
8dd
8cc
=2
4b
4a
4g
8r}
{8b
=3
4a
8a
8g
8f#
8g
8a
8g
=4
4f#
4e
4d
8r}
{8d
=5
4g
4g
4a
4a
=6
2dd
4cc
4b
=7
2a
4g}
==
!!!AGN: geistlich, Heiligen - Lied, Legende
!!!ONB: ESAC (Essen Associative Code) Database: ERK3
!!!AMT: simple quadruple
!!!AIN: vox
!!!EED: Helmut Schaffrath
!!!EEV: 1.0
*-
